X: 022
T: Miss Hunter Blair's Reel
C: attr. John French (1753-1803)
R: reel
B: "John French Collection", John French ed. p.2 #2
S: http://www.heallan.com/french.asp
Z: 2012 John Chambers <jc:trillian.mit.edu>
M: C
L: 1/8
K: F
|:\
(f>gf)d cde(a | ge)fA GABd | (f>gf)d cAfd | TcAGA F/F/F F2 :|
AcFc AF (TFE/F/) | BdGd BG (TGF/G/) | (Ac)Fc Acfd | cAGA F/F/F F2 |
AcFc AFcF | BdGd BGdB | Acfb aefd | cAGA F/F/F F2 |]

%%sep 2 1 500
%%sep 1 1 500

